Obsidian-SemiLight/actions/16s/taxes-finances.svg

<svg viewBox="0 0 16 16" xmlns="http://www.w3.org/2000/svg"><path d="m7.5 2v1.125c-.842895.0781674-1.5071061.2908583-2 .6875-.54239.4322-.8125 1.07152-.8125 1.90625 0 1.16527.69704 1.92109 2.125 2.28125l.6875.1875v3.6875c-.8871702-.079294-1.7187431-.273366-2.5-.65625l-.34375.90625c.31778.19491.7516.3787 1.28125.53125.4648232.129113.9884807.18598 1.5625.21875v1.125h.25.59375.15625v-1.125c.849811-.068429 1.53337-.327183 2.03125-.78125.5339-.48304.81249-1.18273.8125-2.09375-.00001-.73729-.1997-1.2892-.59375-1.6875-.39408-.40255-.9873-.69279-1.75-.875l-.5-.125v-3.25c.3855531.0289438.78709.0830968 1.15625.1875.42373.11442.74151.26219 1 .40625l.3125-.90625c-.640267-.3986489-1.461137-.6370786-2.46875-.6875v-1.0625h-.15625-.59375zm-.21875 2.09375c.0654578-.0109824.1489476.0079386.21875 0v2.96875l-.28125-.0625c-.47034-.1144-.82522-.28389-1.0625-.5-.23305-.22033-.34376-.51482-.34375-.875-.0000088-.85645.4825199-1.3657823 1.46875-1.53125zm1.21875 4.3125.1875.0625c.57626.14407.97139.33952 1.1875.59375.22034.25001.31249.59323.3125 1-.00001 1.13306-.5629367 1.734764-1.6875 1.84375z" fill="#4d4d4d"/></svg>

<svg xmlns="http://www.w3.org/2000/svg" viewBox="0 0 16 16">
  <defs id="defs3051">
    <style type="text/css" id="current-color-scheme">
      .ColorScheme-Text {
        color:#4d4d4d;
      }
      </style>
  </defs>
 <path style="fill:currentColor;fill-opacity:1;stroke:none" 
     d="M 7.5 2 L 7.5 3.125 C 6.657105 3.2031674 5.9928939 3.4158583 5.5 3.8125 C 4.95761 4.2447 4.6875 4.88402 4.6875 5.71875 C 4.6875 6.88402 5.38454 7.63984 6.8125 8 L 7.5 8.1875 L 7.5 11.875 C 6.6128298 11.795706 5.7812569 11.601634 5 11.21875 L 4.65625 12.125 C 4.97403 12.31991 5.40785 12.5037 5.9375 12.65625 C 6.4023232 12.785363 6.9259807 12.84223 7.5 12.875 L 7.5 14 L 7.75 14 L 8.34375 14 L 8.5 14 L 8.5 12.875 C 9.349811 12.806571 10.03337 12.547817 10.53125 12.09375 C 11.06515 11.61071 11.34374 10.91102 11.34375 10 C 11.34374 9.26271 11.14405 8.7108 10.75 8.3125 C 10.35592 7.90995 9.7627 7.61971 9 7.4375 L 8.5 7.3125 L 8.5 4.0625 C 8.8855531 4.0914438 9.28709 4.1455968 9.65625 4.25 C 10.07998 4.36442 10.39776 4.51219 10.65625 4.65625 L 10.96875 3.75 C 10.328483 3.3513511 9.507613 3.1129214 8.5 3.0625 L 8.5 2 L 8.34375 2 L 7.75 2 L 7.5 2 z M 7.28125 4.09375 C 7.3467078 4.0827676 7.4301976 4.1016886 7.5 4.09375 L 7.5 7.0625 L 7.21875 7 C 6.74841 6.8856 6.39353 6.71611 6.15625 6.5 C 5.9232 6.27967 5.81249 5.98518 5.8125 5.625 C 5.8124912 4.76855 6.2950199 4.2592177 7.28125 4.09375 z M 8.5 8.40625 L 8.6875 8.46875 C 9.26376 8.61282 9.65889 8.80827 9.875 9.0625 C 10.09534 9.31251 10.18749 9.65573 10.1875 10.0625 C 10.18749 11.19556 9.6245633 11.797264 8.5 11.90625 L 8.5 8.40625 z "
     class="ColorScheme-Text"
     />
</svg>
